public/assets/half.svg

<svg width="17" height="16" viewBox="0 0 17 16" fill="none" xmlns="http://www.w3.org/2000/svg">
<path fill-rule="evenodd" clip-rule="evenodd" d="M2 0C0.895431 0 0 0.895431 0 2V14C0 15.1046 0.89543 16 2 16H15C16.1046 16 17 15.1046 17 14V2C17 0.895431 16.1046 0 15 0H2ZM3.7583 6.08705C3.96965 6.23077 4.2518 6.2295 4.46176 6.08387L5.09347 5.64571V8.25143C5.09347 8.5544 5.34728 8.8 5.66037 8.8C5.97346 8.8 6.22727 8.5544 6.22727 8.25143L6.22727 4.54857C6.22727 4.2456 5.97346 4 5.66037 4H5.56C5.29469 4 5.03778 4.09003 4.83399 4.25443L3.71858 5.15422C3.41137 5.40205 3.43106 5.86451 3.7583 6.08705ZM10.9026 10.08H12.9805C13.2662 10.08 13.5 9.864 13.5 9.6V7.68C13.5 7.416 13.2662 7.2 12.9805 7.2H10.3831C10.0974 7.2 9.86364 7.416 9.86364 7.68C9.86364 7.944 10.0974 8.16 10.3831 8.16H12.461V9.12H10.9026C10.3312 9.12 9.86364 9.552 9.86364 10.08V11.04C9.86364 11.568 10.3312 12 10.9026 12H12.9805C13.2662 12 13.5 11.784 13.5 11.52C13.5 11.256 13.2662 11.04 12.9805 11.04H10.9026V10.08ZM10.5729 5.03019C10.8454 4.78919 10.8383 4.40459 10.557 4.17115C10.2756 3.93771 9.82664 3.94384 9.55412 4.18483L5.51798 10.9698C5.24547 11.2108 5.25262 11.5954 5.53395 11.8288C5.81528 12.0623 6.26427 12.0562 6.53678 11.8152L10.5729 5.03019Z" fill="#3E3E3E"/>
</svg>

<svg width="17" height="16" fill="none" xmlns="http://www.w3.org/2000/svg"><path fill-rule="evenodd" clip-rule="evenodd" d="M2 0a2 2 0 0 0-2 2v12a2 2 0 0 0 2 2h13a2 2 0 0 0 2-2V2a2 2 0 0 0-2-2H2Zm1.758 6.087a.624.624 0 0 0 .704-.003l.631-.438V8.25c0 .303.254.549.567.549a.558.558 0 0 0 .567-.549V4.55A.558.558 0 0 0 5.66 4h-.1c-.265 0-.522.09-.726.254l-1.115.9a.577.577 0 0 0 .04.933Zm7.145 3.993h2.077c.286 0 .52-.216.52-.48V7.68c0-.264-.234-.48-.52-.48h-2.597c-.286 0-.52.216-.52.48s.234.48.52.48h2.078v.96h-1.558c-.572 0-1.04.432-1.04.96v.96c0 .528.468.96 1.04.96h2.077c.286 0 .52-.216.52-.48s-.234-.48-.52-.48h-2.077v-.96Zm-.33-5.05a.548.548 0 0 0-.016-.859.796.796 0 0 0-1.003.014L5.518 10.97a.548.548 0 0 0 .016.859.795.795 0 0 0 1.003-.014l4.036-6.785Z" fill="#3E3E3E"/></svg>
